X:1
T:T
T:Nous allons voir
T:Lied / HS.81.Vanpelt.333
T:Een speelmansboek uit Maastricht/Tongeren (1786-1824) 
T:BRON: Lusthof-der-muziek.blogspot.com: Handschrift van VanPelt (1786-1824)  / Transcriptie door Ad Kwakernaat (2015) 
T:Naar een origineel van Grétry André-Ernest-Modeste (1741-1813) 
T:Genoteerd door Van der Elst Johan
Z:Een speelmansboek uit Maastricht/Tongeren (1786-1824)
Z:Genoteerd door Van der Elst Johan
L:1/8
Q:1/4=100
M:4/4
K:D
V:1 treble nm="Viool" snm="Vl."
V:1
 F2 FG || A2 F2 B2 G2 | A4 F2 GA | AGFE E3 G |{A} G2 E2 F2 FG | A2 F2 B2 G2 | A4 B2 cd | %7
 d/c/B/c/ e/d/c/B/ A2 c/B/A/B/ | A2 A2 c2 ec | d2 A2{A} G2 G2 | F3 A (AF)(BG) | AFdc BAGF | %12
 F2 E2 G2 G2 | %13
"_BRON: Alamire uitgave \"Speelmansboek uit Maastricht\"\n vermeldt bij concordatie:\n             Grétry André-Ernest-Modeste (1741-1813), \nL'amitié à l'epreuve \n(1770)\n" GFED B2 B2 | %14
{c} B2 A2 c2 ec | d2 d2 cdec | d4 A2 !wedge!d!wedge!c | (cB)(AG) F2 E2 | D2 z2 |] %19

